azure-patterns/svg-cloud-circle-key.svg

<svg xmlns="http://www.w3.org/2000/svg" viewBox="0 0 97 97">
                                
                            
<path d="M12.9096 16.663C5.73991 24.5957 1.19573 34.9199 0.589844 46.3051H10.8563C11.4285 37.7493 14.8283 29.9683 20.1298 23.8883L12.9096 16.663Z" fill="#50E6FF"></path>
<path d="M16.5283 84.6546C24.4722 91.762 34.7892 96.2756 46.1496 96.8314V86.7598C37.583 86.1872 29.8074 82.7683 23.7317 77.4462L16.5283 84.6546Z" fill="#0078D4"></path>
<path d="M0.589844 51.3746C1.1789 62.7599 5.72308 73.0841 12.876 81.0167L20.0961 73.7915C14.8114 67.7115 11.4285 59.9304 10.8563 51.3746H0.589844Z" fill="#0078D4"></path>
<path d="M84.2702 16.8483L77.2856 23.8377C82.6208 29.9177 86.0374 37.7156 86.5928 46.3051H96.4217C95.8326 35.0041 91.3389 24.7472 84.2702 16.8483Z" fill="#50E6FF"></path>
<path d="M51.2153 0.915649V10.9535C59.7819 11.5093 67.5744 14.8946 73.6669 20.1999L80.6683 13.1935C72.7749 6.08617 62.5085 1.53881 51.2153 0.915649Z" fill="#50E6FF"></path>
<path d="M46.1494 0.898804C34.789 1.45459 24.4888 5.95143 16.5449 13.042L23.7483 20.2504C29.8072 14.9451 37.5828 11.543 46.1326 10.9535V0.898804H46.1494Z" fill="#50E6FF"></path>
<path d="M74.1721 52.3346C74.1889 52.2167 74.2226 52.0988 74.2394 51.9977C74.374 51.2904 74.4414 50.5661 74.4414 49.8251C74.4414 43.4419 69.2745 38.2714 62.8958 38.2714C62.0038 38.2714 61.1454 38.3725 60.3208 38.5746C57.6784 34.4146 53.0501 31.6693 47.7654 31.6693C39.569 31.6693 32.9211 38.3219 32.9211 46.524C32.9211 46.7261 32.9211 46.9283 32.9379 47.1304C32.1974 46.8777 31.3895 46.743 30.548 46.743C26.5087 46.743 23.2437 50.0104 23.2437 54.0525C23.2437 57.8419 26.1385 60.9577 29.8243 61.3283L62.8958 61.3956C67.238 61.3956 71.008 59.004 72.994 55.4672C73.0445 55.3661 73.1118 55.2651 73.1623 55.164C73.4652 54.524 73.9028 53.564 74.1721 52.3346Z" fill="#50E6FF"></path>
<path d="M96.4216 51.3746H86.5927C86.4413 53.682 86.0878 55.922 85.5493 58.0946C87.4006 59.9473 88.4104 62.423 88.3936 65.0336C88.3936 68.8736 86.172 72.2925 82.8228 73.9094V74.2967H89.2014C93.409 67.5936 96.0009 59.7788 96.4216 51.3746Z" fill="#0078D4"></path>
<path d="M58.7219 88.4778V85.5135C56.2983 86.1704 53.7906 86.5914 51.1987 86.7599V96.7978C57.3081 96.4609 63.1146 94.9788 68.3993 92.5536H62.8116C60.5564 92.5536 58.7219 90.7346 58.7219 88.4778Z" fill="#0078D4"></path>
<path d="M94.974 76.8231H81.5434V88.4273H75.5855V85.5978H72.1353V79.7536H75.5855V76.8063H62.8113C61.9361 76.8063 61.2461 77.4968 61.2461 78.3726V88.4778C61.2461 89.3368 61.9361 90.0442 62.8113 90.0442H68.8534H94.974C95.8492 90.0442 96.5392 89.3536 96.5392 88.4778V78.3726C96.556 77.5136 95.8492 76.8231 94.974 76.8231ZM85.2461 81.5894H83.1255V79.4673H85.2461V81.5894ZM89.4873 81.5894H87.3667V79.4673H89.4873V81.5894ZM93.7285 81.5894H91.6079V79.4673H93.7285V81.5894Z" fill="#50E6FF"></path>
<path d="M78.5475 57.7072C74.4914 57.7072 71.2095 60.9914 71.2095 65.0335C71.2095 68.4693 73.5825 71.3493 76.7803 72.1408V80.8819H73.2628V84.4019H76.7803V87.2314H80.2978V72.1408C83.4956 71.3493 85.8687 68.4861 85.8687 65.0335C85.8855 60.9914 82.6036 57.7072 78.5475 57.7072ZM78.5475 68.8735C76.4269 68.8735 74.6933 67.1556 74.6933 65.0335C74.6933 62.9114 76.41 61.1935 78.5475 61.1935C80.6849 61.1935 82.4016 62.9114 82.4016 65.0335C82.4016 67.1556 80.6681 68.8735 78.5475 68.8735Z" fill="#0078D4"></path>
</svg>

<svg xmlns="http://www.w3.org/2000/svg" viewBox="0 0 97 97"><path d="M12.91 16.663A47.877 47.877 0 0 0 .59 46.305h10.266a37.887 37.887 0 0 1 9.274-22.417l-7.22-7.225z" fill="#50E6FF"/><path d="M16.528 84.655c7.944 7.107 18.261 11.62 29.622 12.176V86.76c-8.567-.573-16.343-3.992-22.418-9.314l-7.204 7.209zM.59 51.375c.589 11.385 5.133 21.71 12.286 29.642l7.22-7.225a37.957 37.957 0 0 1-9.24-22.417H.59z" fill="#0078D4"/><path d="M84.27 16.848l-6.984 6.99a37.668 37.668 0 0 1 9.307 22.467h9.829c-.59-11.3-5.083-21.558-12.152-29.457zM51.215.916v10.037A37.837 37.837 0 0 1 73.667 20.2l7.001-7.006C72.775 6.086 62.508 1.539 51.215.915zM46.15.899c-11.361.556-21.661 5.052-29.605 12.143l7.203 7.208a37.863 37.863 0 0 1 22.385-9.296V.899h.016zM74.172 52.335c.017-.118.05-.236.067-.337.135-.708.202-1.432.202-2.173 0-6.383-5.166-11.554-11.545-11.554-.892 0-1.75.102-2.575.304-2.643-4.16-7.27-6.906-12.556-6.906-8.196 0-14.844 6.653-14.844 14.855 0 .202 0 .404.017.606a7.404 7.404 0 0 0-2.39-.387 7.3 7.3 0 0 0-7.304 7.31c0 3.789 2.895 6.905 6.58 7.275l33.072.068c4.342 0 8.112-2.392 10.098-5.929.05-.1.118-.202.168-.303.303-.64.74-1.6 1.01-2.83z" fill="#50E6FF"/><path d="M96.422 51.375h-9.83a38.307 38.307 0 0 1-1.043 6.72 9.677 9.677 0 0 1 2.845 6.939 9.862 9.862 0 0 1-5.571 8.875v.388H89.2a47.456 47.456 0 0 0 7.22-22.922zM58.722 88.478v-2.965a38.15 38.15 0 0 1-7.523 1.247v10.038a47.43 47.43 0 0 0 17.2-4.244h-5.587a4.081 4.081 0 0 1-4.09-4.076z" fill="#0078D4"/><path d="M94.974 76.823h-13.43v11.604h-5.959v-2.83h-3.45v-5.843h3.45v-2.948H62.811c-.875 0-1.565.69-1.565 1.567v10.105c0 .859.69 1.566 1.565 1.566h32.163c.875 0 1.565-.69 1.565-1.566V78.373c.017-.86-.69-1.55-1.565-1.55zm-9.728 4.766h-2.12v-2.122h2.12v2.122zm4.241 0h-2.12v-2.122h2.12v2.122zm4.242 0h-2.121v-2.122h2.12v2.122z" fill="#50E6FF"/><path d="M78.547 57.707c-4.056 0-7.337 3.284-7.337 7.327 0 3.435 2.373 6.315 5.57 7.107v8.74h-3.517v3.52h3.517v2.83h3.518v-15.09c3.198-.792 5.57-3.655 5.57-7.108.017-4.042-3.264-7.326-7.32-7.326zm0 11.167c-2.12 0-3.854-1.718-3.854-3.84a3.84 3.84 0 0 1 3.855-3.84 3.84 3.84 0 0 1 3.854 3.84c0 2.122-1.734 3.84-3.855 3.84z" fill="#0078D4"/></svg>
